**kern	**kern	**dynam
*part1	*part1	*part1
*staff2	*staff1	*
*I"Piano	*	*
*clefF4	*clefG2	*
*k[b-]	*k[b-]	*
=1	=1	=1
*^	*	*
4.G 4.B-	8CCL]	4.e	.
.	16DDL	.	.
.	16CCJJ	.	.
.	4CC	.	.
8ryy	.	8C< 8E< 8B-<	.
*v	*v	*	*
=	=	=
4FF	4C< 4F< 4A<	.
!	!LO:TX:b:i:t=cresc.	!
!	!LO:TX:a:i:t=rit.	!
4BBBn 4BBn	4A-X 4d 4f	.
=	=	=
8CC 8C	8c 8f 8an 8cc	.
8r	8r	.
4C	8B-: 8e: 8g: 8cc:	.
.	8r	.
=	=	=
8FFFL 8FF	4.f 4.a 4.ff	f >
16GGL	.	.
16FFJJ	.	.
[4FF	.	.
.	8dd 8ff 8aa-X 8bbn	.
=	=	=
8FFL]	4.cc 4.ff 4.aan 4.ccc	.
16GGL	.	.
16FFJJ	.	.
[4FF	.	.
!	!LO:TX:b:i:t=decresc.	!
!	!LO:TX:a:i:t=dimin.	!
.	8bn 8dd 8gg#X	]
=	=	=
8FFL]	4.a 4.cc 4.ff 4.aa	.
16GGL	.	.
16FFJJ	.	.
[4FF	.	.
.	8a#X 8cc#X 8ee 8gg	.
=	=	=
2FF_	8gL 8b-X 8ccn 8ee	] pp
.	8e 8g 8b- 8cc	.
.	8c 8e 8g 8b-	.
.	8B-J 8c 8e 8g	.
=	=	=
2FFF; 2FF]	2A; 2c 2f 2a	.
==	==	==
*-	*-	*-
!!!system-decoration: {(s1,s2)}
!!!RDF**kern: < = below
